public/icons/svg/check-circle.svg

<svg fill="none" height="26" viewBox="0 0 26 26" width="26" xmlns="http://www.w3.org/2000/svg"><path d="m18.7075 9.2925c.093.09287.1667.20316.2171.32456.0503.1214.0762.25152.0762.38294 0 .1314-.0259.2615-.0762.3829-.0504.1214-.1241.2317-.2171.3246l-7 7c-.0929.093-.2032.1667-.3246.2171-.1214.0503-.2515.0762-.3829.0762s-.2615-.0259-.3829-.0762c-.1214-.0504-.2317-.1241-.3246-.2171l-2.99999-3c-.18765-.1876-.29306-.4421-.29306-.7075s.10541-.5199.29306-.7075c.18764-.1876.44213-.2931.7075-.2931.26536 0 .51986.1055.7075.2931l2.29249 2.2938 6.2925-6.2938c.0929-.09298.2032-.16674.3246-.21706s.2515-.07623.3829-.07623.2615.02591.3829.07623.2317.12408.3246.21706zm7.2925 3.7075c0 2.5712-.7624 5.0846-2.1909 7.2224-1.4284 2.1379-3.4588 3.8041-5.8342 4.788-2.3754.984-4.9893 1.2414-7.5111.7398-2.52172-.5016-4.8381-1.7397-6.65618-3.5578-1.81809-1.8181-3.056215-4.1345-3.557823-6.6562-.501608-2.5218-.2441643-5.1356.739775-7.51108.983938-2.37544 2.650178-4.40577 4.788018-5.83422 2.13784-1.428463 4.65121-2.1909 7.22241-2.1909 3.4467.00363977 6.7512 1.37445 9.1884 3.81163 2.4372 2.43719 3.808 5.74167 3.8116 9.18837zm-2 0c0-2.1756-.6451-4.30233-1.8538-6.11127s-2.9267-3.21884-4.9367-4.0514c-2.01-.83257-4.2217-1.05041-6.3555-.62597-2.13378.42444-4.09379 1.47209-5.63217 3.01047-1.53838 1.53837-2.58602 3.49839-3.01046 5.63217-.42444 2.1338-.2066 4.3455.62596 6.3555s2.24246 3.728 4.0514 4.9367 3.93567 1.8538 6.11127 1.8538c2.9164-.0033 5.7123-1.1633 7.7745-3.2255s3.2222-4.8581 3.2255-7.7745z" fill="#f26a4b"/></svg>

<svg width="26" height="26" viewBox="0 0 26 26" fill="none" xmlns="http://www.w3.org/2000/svg">
<path d="M18.7075 9.2925C18.8005 9.38537 18.8742 9.49566 18.9246 9.61706C18.9749 9.73846 19.0008 9.86858 19.0008 10C19.0008 10.1314 18.9749 10.2615 18.9246 10.3829C18.8742 10.5043 18.8005 10.6146 18.7075 10.7075L11.7075 17.7075C11.6146 17.8005 11.5043 17.8742 11.3829 17.9246C11.2615 17.9749 11.1314 18.0008 11 18.0008C10.8686 18.0008 10.7385 17.9749 10.6171 17.9246C10.4957 17.8742 10.3854 17.8005 10.2925 17.7075L7.29251 14.7075C7.10486 14.5199 6.99945 14.2654 6.99945 14C6.99945 13.7346 7.10486 13.4801 7.29251 13.2925C7.48015 13.1049 7.73464 12.9994 8.00001 12.9994C8.26537 12.9994 8.51987 13.1049 8.70751 13.2925L11 15.5863L17.2925 9.2925C17.3854 9.19952 17.4957 9.12576 17.6171 9.07544C17.7385 9.02512 17.8686 8.99921 18 8.99921C18.1314 8.99921 18.2615 9.02512 18.3829 9.07544C18.5043 9.12576 18.6146 9.19952 18.7075 9.2925ZM26 13C26 15.5712 25.2376 18.0846 23.8091 20.2224C22.3807 22.3603 20.3503 24.0265 17.9749 25.0104C15.5995 25.9944 12.9856 26.2518 10.4638 25.7502C7.94208 25.2486 5.6257 24.0105 3.80762 22.1924C1.98953 20.3743 0.751405 18.0579 0.249797 15.5362C-0.251811 13.0144 0.0056327 10.4006 0.989572 8.02512C1.97351 5.64968 3.63975 3.61935 5.77759 2.1909C7.91543 0.762437 10.4288 0 13 0C16.4467 0.00363977 19.7512 1.37445 22.1884 3.81163C24.6256 6.24882 25.9964 9.5533 26 13ZM24 13C24 10.8244 23.3549 8.69767 22.1462 6.88873C20.9375 5.07979 19.2195 3.66989 17.2095 2.83733C15.1995 2.00476 12.9878 1.78692 10.854 2.21136C8.72022 2.6358 6.76021 3.68345 5.22183 5.22183C3.68345 6.7602 2.63581 8.72022 2.21137 10.854C1.78693 12.9878 2.00477 15.1995 2.83733 17.2095C3.66989 19.2195 5.07979 20.9375 6.88873 22.1462C8.69767 23.3549 10.8244 24 13 24C15.9164 23.9967 18.7123 22.8367 20.7745 20.7745C22.8367 18.7123 23.9967 15.9164 24 13Z" fill="#F26A4B"/>
</svg>
